website/img/icon-tools.svg

<svg clip-rule="evenodd" fill-rule="evenodd" stroke-linejoin="round" stroke-miterlimit="2" viewBox="0 0 53 51" xmlns="http://www.w3.org/2000/svg"><path d="m0-.005c0 4.502-3.744 8.17-8.345 8.17-4.596 0-8.345-3.668-8.345-8.17 0-4.5 3.749-8.16 8.345-8.16 4.603.002 8.345 3.66 8.345 8.16m10.527-5.842-1.314-3.121s3.058-6.896 2.785-7.162l-4.045-3.951c-.282-.274-7.181 2.875-7.181 2.875l-3.183-1.287s-2.812-6.991-3.198-6.991h-5.712c-.396 0-2.999 7.008-2.999 7.008l-3.178 1.287s-7.045-2.992-7.315-2.726l-4.041 3.959c-.28.269 2.936 7.029 2.936 7.029l-1.313 3.117s-7.142 2.752-7.142 3.123v5.598c0 .391 7.159 2.941 7.159 2.941l1.314 3.112s-3.057 6.892-2.79 7.158l4.046 3.961c.274.269 7.177-2.881 7.177-2.881l3.187 1.291s2.81 6.986 3.199 6.986h5.711c.397 0 3.001-7.007 3.001-7.007l3.187-1.29s7.032 2.995 7.303 2.733l4.047-3.957c.28-.275-2.943-7.031-2.943-7.031l1.31-3.118s7.146-2.755 7.146-3.132v-5.594c.001-.387-7.154-2.93-7.154-2.93" fill="#00bddf" fill-rule="nonzero" transform="translate(34.373 25.484)"/></svg>

<?xml version="1.0" encoding="UTF-8" standalone="no"?>
<!DOCTYPE svg PUBLIC "-//W3C//DTD SVG 1.1//EN" "http://www.w3.org/Graphics/SVG/1.1/DTD/svg11.dtd">
<svg width="100%" height="100%" viewBox="0 0 53 51" version="1.1" xmlns="http://www.w3.org/2000/svg" xmlns:xlink="http://www.w3.org/1999/xlink" xml:space="preserve" xmlns:serif="http://www.serif.com/" style="fill-rule:evenodd;clip-rule:evenodd;stroke-linejoin:round;stroke-miterlimit:2;">
    <g transform="matrix(1,0,0,1,-574.685,-433.039)">
        <g transform="matrix(1,0,0,1,609.058,458.523)">
            <path d="M0,-0.005C0,4.497 -3.744,8.165 -8.345,8.165C-12.941,8.165 -16.69,4.497 -16.69,-0.005C-16.69,-4.505 -12.941,-8.165 -8.345,-8.165C-3.742,-8.163 0,-4.505 0,-0.005M10.527,-5.847L9.213,-8.968C9.213,-8.968 12.271,-15.864 11.998,-16.13L7.953,-20.081C7.671,-20.355 0.772,-17.206 0.772,-17.206L-2.411,-18.493C-2.411,-18.493 -5.223,-25.484 -5.609,-25.484L-11.321,-25.484C-11.717,-25.484 -14.32,-18.476 -14.32,-18.476L-17.498,-17.189C-17.498,-17.189 -24.543,-20.181 -24.813,-19.915L-28.854,-15.956C-29.134,-15.687 -25.918,-8.927 -25.918,-8.927L-27.231,-5.81C-27.231,-5.81 -34.373,-3.058 -34.373,-2.687L-34.373,2.911C-34.373,3.302 -27.214,5.852 -27.214,5.852L-25.9,8.964C-25.9,8.964 -28.957,15.856 -28.69,16.122L-24.644,20.083C-24.37,20.352 -17.467,17.202 -17.467,17.202L-14.28,18.493C-14.28,18.493 -11.47,25.479 -11.081,25.479L-5.37,25.479C-4.973,25.479 -2.369,18.472 -2.369,18.472L0.818,17.182C0.818,17.182 7.85,20.177 8.121,19.915L12.168,15.958C12.448,15.683 9.225,8.927 9.225,8.927L10.535,5.809C10.535,5.809 17.681,3.054 17.681,2.677L17.681,-2.917C17.682,-3.304 10.527,-5.847 10.527,-5.847" style="fill:rgb(0,189,223);fill-rule:nonzero;"/>
        </g>
    </g>
</svg>
